X:6033
T:Gan Ainm 
R:Reel
S:
H:
N:
D:Irish Dancing Tape (P. Acc)
Z:Adrian Scahill
M:4/4
L:1/8
K:A
aAGA fAGA|aAGA fAGA|GABc dBGB|GABc defg|\
aAGA fAGA|aAGA fAGA|GABc dBGB|(3ABA GB A4:||\
A2eA AfAA|eAAf AAeA|G2eG GfGG|eGGf GGeG|\
A2eA AfAA|eAAf AAeA|GABc dBGB|(3ABA GB A4:||
